X:1
T:Loving Kindness, LM Refrain
T:Loving Kindness, LM Refrain
T:William Caldwell, 19th Century
T:Public Domain Courtesy of the Cyber Hymnal™
C:William Caldwell, 19th Century
Z:Public Domain
Z:Courtesy of the Cyber Hymnal™
%%score ( 1 2 ) ( 3 4 )
L:1/8
Q:1/4=108
M:4/4
K:G
V:1 treble 
V:2 treble 
V:3 bass 
V:4 bass 
V:1
 D2 | [DG]2 [DG]2 (G>A) (B>G) | [FA]2 [FA]2 [FA]2 ([GB][Fc]) x2 | [Gd]3 [Fc] (BGd)[GB] | %4
 G2 [FA]2 !fermata![DG]2 (B>c) | [Gd]2 [Gd]2 ([Gd]>[Fc]) [GB]2 | [Fc]2 [Fc]2 (c>B) ([DA][Fc]) | %7
 [Gd]3 [Fc] (BGd)[GB] | G2 [FA]2 [DG]4 | [FA]3 [GB] ([FA][DF]) D2 | %10
 [Ac]3 [Bd] ([Ac][GB]) [FA] ([GB]/[Fc]/) | [Gd]3 [Fc] (BGd)[GB] | G2 [FA]2 !fermata![DG]2 |] %13
V:2
 D2 | x4 D2 G2 | x10 | x4 G3 x | G2 x2 G2 x2 | x8 | x4 D2 x2 | x4 G3 x | G2 x6 | x6 D2 | x8 | %11
 x4 G3 x | G2 x4 |] %13
V:3
 F,2 | [G,,B,]2 [G,B,]2 (B,>C) x2 | (D>B,) [D,D]2 [D,D]2 [D,D]2 D2 | [B,D]3 [A,D] (D B,2) [G,D] | %4
 [D,B,]2 [D,C]2 !fermata![G,,B,]2 D2 | [B,D]2 [B,D]2 D2 [G,D]2 | [A,D]2 [A,D]2 D2 D2 | %7
 [B,D]3 [A,D] (D B,2) [G,D] | [D,B,]2 [D,C]2 [G,,B,]4 | [D,D]3 [D,D] (DA,) [D,F,]2 | %10
 [D,D]3 [D,D] [D,D]2 [D,D]D | [B,D]3 [A,D] (D B,2) [G,D] | [D,B,]2 [D,C]2 !fermata![G,,B,]2 |] %13
V:4
 F,2 | x4 G,2 x2 | G,2 x9/2 (G,A,) x3/2 | x4 G,3 x | x6 (G,>A,) | x4 (B,>A,) x2 | %6
 x4 (A,>G,) (F,A,) | x4 G,3 x | x8 | x4 D,2 x2 | x7 (G,/A,/) | x4 G,3 x | x6 |] %13

